X: 63
T:Meysydd Glas yr Amerig
T:The Green Fields of America
M:C
L:1/8
Q:150
S:Cadw Twmpath Collection
A:Wales
Z:brian_martin12345@yahoo.com
K:G
G>B|c2e>cB2d>B|AGAB GECE|G3E CEGB|AGAB cGEG|
c2e>cB2d>B|AGAB GEDE|G3E DEGB|AGABG2:||
G2|GABcd2ef|efge dBGB|c2e>cB2d>B|AGAB cBE2|
gfge eBGB|AGAB GEDE|G3E DEGB|AGABG2:||
